!!!COM: Robert Schumann
!!!CNT: Deutsch
!!!TXO: Deutsch
!!!OTL: Sonntags am Rhein
!!!LYR: Reinick
!!!OPR: Ausgewa2hlte Lieder
!!!OPS: Op. 36
!!!ONM: No. 1
!!!ENC: Ben Fuhrman
!!!YOR: Schumann Lieder - Max Friedlaender, ed.,
!!!YOR: New York: C. F. Peters, Vol. 1
!!!ODT: 1840/
!!NB: Vocal melody and text only encoded.
!!NB: First instance of melodic material only encoded.
**kern	**silbe
*clefG2	*
*k[]	*
*M4/4	*
!!created: 5/19/06 10:38
!!proofed and posted: 5/19/06 10:40
!!edit time: 36 minutes
=1	=1
2r	.
4r	.
{4e	{Des
=2	=2
4.f	Sonn-
8e	-tags
4d	in
4a	der
=3	=3
4.g	Mor-
8f	-gen-
4e}	-stund;}
{4cc	{wie
=4	=4
4.cc	wan-
8a	-dert's
4e	sich
4f#	so
=5	=5
2.g	scho2n
4e	am
=6	=6
4.fn}	Rhein,}
{8e	{wenn
4d	rings
4a	in
=7	-7
4.g	wei-
8f	-ter
4e	Rund'
4cc	die
=8	=8
4.cc	Mor-
8a	-gen-
4e	-glok-
4f#	-ken
=9	=9
2g}	geh'n!}
4r	.
{4g	{Ein
=10	=10
4.g	Schiff-
8b	-lein
4dd	zieht
4b	auf
=11	=11
4.cc	blau-
8g	-er
4e}	Flut}
{4c	{da
=12	=12
4.f	singt's
8d	und
4B	ju-
4A	-belt's
=13	=13
2G}	drein;}
4r	.
{4g	{du
=14	=14
4.g	Schiff-
8b	-lein,
4dd	gelt,
4b	das
=15	=15
4.cc	Fa2hrt
8g	sich
4e	gut
4c	in
=16	=16
4.f	all
8d	die
4B	Lust
4A	hin
=17	=17
2G}	ein?}
4r	.
{4cc	{Vom
=18	-18
4.cc	Dor-
8cc	-fe
4cc	hal-
4cc	-let
=19	=19
(4dd	Or-
8ee)	|
8ff	-gel-
4ee}	-ton,}
{4dd	{es
=20	=20
4.ee	to2nt
8ee	ein
4ee	from-
4ee	-mes
=21	=21
2.ee}	Lied,}
{4ee	{an-
=22	=22
4.dd	-da2ch-
8dd	-tig
4dd	dort
4dd	die
=23	=23
4.cc	Pro-
8cc	-zes-
4cc	-sion
4cc	aus
=24	=24
(4b-	der
8cc)	|
8dd	Ka-
4cc	-pel-
4b-	-le
=25	=25
2a}	zieht.}
4r	.
{4f	{Und
=26	=26
4.f	ernst
8f	in
4f	all
4f	die
=27	=27
(4g	herr-
8a)	|
8b-	-lich-
4a}	-leit}
{4g	{die
=28	=28
4.a	Burg
8a	her-
4a	-nie-
4a	-der
=29	=29
(4a	schaut
2b-)	|
4a	und
=30	=30
4.g	spricht
8g	von
4g	al-
4g	-ter,
=31	=31
4.f	gu-
8f	-ter
4f}	Zeit,}
{4f	{die
=32	=32
(4e-	auf
8f)	|
8g	den
4f	Fels
4e-	ge-
=33	=33
[1d	baut
=34	=34
2d]}	|}
4r	.
{4en	{Das
=35	=35
4.f	al-
8e	-les
4d	beut
4a	der
=36	=36
4.g	pra2cht'
8f	-ge
4e	Rhein
4cc	an
=37	=37
4.cc	sei-
8a	-nem
4e	Re-
4f#	-ben-
=38	=38
2.g}	-strand,}
{4e	{und
=39	=39
4.fn	spie-
8e	-gelt
4d	recht
4a	im
=40	=40
4.g	hell-
8f	-sten
4e	Schein
4cc	das
=41	=41
4.cc	gan-
8a	-ze
4e	Va-
4f#	-ter-
=42	=42
2g}	-land,}
4r	.
{4g	{das
=43	=43
4.g	from-
8f	-me,
4e	treu-
4cc	-e
=44	=44
4.cc	Va-
8b	-ter-
4a	-land
4a	in
=45	=45
4.a	sei-
8a	-ner
4.cc#	vol-
8cc#	-len
=46	=46
2.dd}	Pracht,}
{(8ee	{mit
8ff)	|
=47	=47
(8ff	Lust
4g)	|
8g	und
4g	Lie-
4g	-dern
=48	=48
4ee	al-
4cc	-ler-
4cc	-hand
4a	vom
=49	=49
4g	lie-
4e	-ben
(8d	Gott
4a)	|
8g	be-
=50	=50
2.c}	-dacht.}
4r	.
==	==
*-	*-
